X: 092
T: The Travellers
C: Bert Murray
R: reel
B: Bert Murray's "Bon Accord Collection" 1999 p.9
%
N: Written in 1996 on Danny and Bert's trip to Cape Breton.  Danny suggested the title.
Z: 2011 John Chambers <jc:trillian.mit.edu>
M: 4/4
L: 1/8
K: Bb
uF |\
B2 (cB/A/) BFDF | GABG FDB,D | EG,B,E DB,DF | GccB AFGA |
B2 (cB/A/) BFDF | GBeG FB,DF | EG,B,E FBAc | (dc/B/) (cB/A/) B3 ||
uf |\
b2(fe) dBFB | GABG FB,DF | GBeG FBdB | GccB Afga |
babg fdBF | GBeG FB,DF | EG,B,E FBAc | (dc/B/) (cB/A/) B3 |]

%%sep 2 1 500

